assets/images/btn_appstore.svg

<svg width="158" height="50" viewBox="0 0 158 50" fill="none" xmlns="http://www.w3.org/2000/svg">
<path fill-rule="evenodd" clip-rule="evenodd" d="M152.379 50H5.53468C2.48353 50 0 47.34 0 44.0837V5.9075C0 2.65 2.48353 0 5.53468 0H152.379C155.429 0 158 2.65 158 5.9075V44.0837C158 47.34 155.429 50 152.379 50Z" fill="#004177"/>
<path fill-rule="evenodd" clip-rule="evenodd" d="M39.5493 23.558C39.5192 20.2089 42.2856 18.5795 42.4121 18.5037C40.8454 16.2145 38.417 15.9017 37.5637 15.8768C35.5242 15.6617 33.5458 17.0998 32.5069 17.0998C31.4472 17.0998 29.8473 15.8976 28.123 15.9329C25.9041 15.9672 23.8282 17.2547 22.6897 19.2539C20.3402 23.3304 22.0925 29.321 24.3436 32.616C25.4696 34.2298 26.7854 36.0316 28.5076 35.9683C30.1926 35.8986 30.8219 34.8917 32.8553 34.8917C34.8699 34.8917 35.4609 35.9683 37.2174 35.9277C39.0257 35.8986 40.1642 34.3067 41.2508 32.6784C42.5521 30.8287 43.0747 29.0072 43.0954 28.9136C43.0529 28.8991 39.5835 27.5721 39.5493 23.558Z" fill="white"/>
<path fill-rule="evenodd" clip-rule="evenodd" d="M36.2313 13.7092C37.1375 12.5734 37.7576 11.0282 37.5855 9.46021C36.2738 9.5184 34.6335 10.3694 33.6889 11.4803C32.8532 12.4591 32.1066 14.0635 32.2995 15.5723C33.7729 15.6825 35.2857 14.8273 36.2313 13.7092Z" fill="white"/>
<path fill-rule="evenodd" clip-rule="evenodd" d="M64.6232 33.7043H62.2684L60.9785 29.6423H56.4951L55.2664 33.7043H52.9739L57.4158 19.8756H60.1594L64.6232 33.7043ZM60.5897 27.9382L59.4232 24.3272C59.2998 23.9583 59.0686 23.0896 58.7275 21.7221H58.686C58.5502 22.3103 58.3314 23.179 58.0307 24.3272L56.885 27.9382H60.5897Z" fill="white"/>
<path fill-rule="evenodd" clip-rule="evenodd" d="M76.0463 28.5959C76.0463 30.2917 75.5891 31.6322 74.6746 32.6163C73.8554 33.4922 72.8383 33.9297 71.6241 33.9297C70.3135 33.9297 69.372 33.4579 68.7986 32.5144H68.7571V37.7672H66.5465V27.0154C66.5465 25.9492 66.5185 24.855 66.4646 23.7328H68.4087L68.5321 25.3133H68.5736C69.3108 24.1225 70.4296 23.5281 71.931 23.5281C73.1047 23.5281 74.0846 23.9926 74.8685 24.9226C75.6544 25.8536 76.0463 27.0777 76.0463 28.5959ZM73.7943 28.6769C73.7943 27.7064 73.5765 26.9063 73.139 26.2766C72.661 25.6198 72.0191 25.2915 71.2145 25.2915C70.6691 25.2915 70.1735 25.4744 69.7308 25.8349C69.287 26.1986 68.9966 26.6735 68.8608 27.2616C68.7924 27.536 68.7582 27.7604 68.7582 27.9371V29.5997C68.7582 30.325 68.9801 30.937 69.4238 31.4368C69.8676 31.9367 70.4441 32.1861 71.1533 32.1861C71.986 32.1861 72.634 31.8639 73.0975 31.2218C73.562 30.5785 73.7943 29.7306 73.7943 28.6769Z" fill="white"/>
<path fill-rule="evenodd" clip-rule="evenodd" d="M87.4904 28.5959C87.4904 30.2917 87.0331 31.6322 86.1176 32.6163C85.2995 33.4922 84.2823 33.9297 83.0681 33.9297C81.7575 33.9297 80.816 33.4579 80.2437 32.5144H80.2022V37.7672H77.9916V27.0154C77.9916 25.9492 77.9636 24.855 77.9097 23.7328H79.8538L79.9772 25.3133H80.0187C80.7548 24.1225 81.8736 23.5281 83.3761 23.5281C84.5488 23.5281 85.5286 23.9926 86.3146 24.9226C87.0974 25.8536 87.4904 27.0777 87.4904 28.5959ZM85.2383 28.6769C85.2383 27.7064 85.0195 26.9063 84.5819 26.2766C84.104 25.6198 83.4642 25.2915 82.6585 25.2915C82.1121 25.2915 81.6175 25.4744 81.1737 25.8349C80.73 26.1986 80.4407 26.6735 80.3048 27.2616C80.2374 27.536 80.2022 27.7604 80.2022 27.9371V29.5997C80.2022 30.325 80.4241 30.937 80.8658 31.4368C81.3096 31.9356 81.8861 32.1861 82.5974 32.1861C83.43 32.1861 84.078 31.8639 84.5415 31.2218C85.006 30.5785 85.2383 29.7306 85.2383 28.6769Z" fill="white"/>
<path fill-rule="evenodd" clip-rule="evenodd" d="M100.285 29.8263C100.285 31.0025 99.8778 31.9596 99.0597 32.6984C98.1607 33.5058 96.9092 33.909 95.301 33.909C93.8162 33.909 92.6259 33.6222 91.7249 33.0475L92.2371 31.201C93.2076 31.7892 94.2725 32.0843 95.4327 32.0843C96.2653 32.0843 96.9134 31.8952 97.3789 31.519C97.8424 31.1428 98.0736 30.6378 98.0736 30.0081C98.0736 29.447 97.8828 28.9742 97.5002 28.5907C97.1197 28.2073 96.4841 27.8509 95.5965 27.5215C93.1806 26.6185 91.9737 25.2957 91.9737 23.5562C91.9737 22.4194 92.3967 21.4873 93.2439 20.762C94.0879 20.0356 95.2139 19.673 96.622 19.673C97.8777 19.673 98.9208 19.8922 99.7534 20.3297L99.2007 22.1357C98.4231 21.7117 97.5438 21.4998 96.5598 21.4998C95.7821 21.4998 95.1745 21.692 94.739 22.0744C94.371 22.4163 94.1864 22.8329 94.1864 23.3265C94.1864 23.8731 94.3969 24.3251 94.8199 24.6805C95.188 25.0089 95.8568 25.3643 96.8273 25.7477C98.0145 26.2267 98.8865 26.7868 99.4475 27.429C100.006 28.0691 100.285 28.8703 100.285 29.8263Z" fill="white"/>
<path fill-rule="evenodd" clip-rule="evenodd" d="M107.594 25.3954H105.158V30.2367C105.158 31.4681 105.587 32.0832 106.448 32.0832C106.843 32.0832 107.17 32.0489 107.43 31.9804L107.491 33.6627C107.055 33.8258 106.482 33.9079 105.772 33.9079C104.899 33.9079 104.216 33.6409 103.724 33.1078C103.233 32.5737 102.987 31.678 102.987 30.4196V25.3934H101.535V23.7308H102.987V21.905L105.158 21.2483V23.7308H107.594V25.3954Z" fill="white"/>
<path fill-rule="evenodd" clip-rule="evenodd" d="M118.588 28.6365C118.588 30.1692 118.151 31.4276 117.278 32.4116C116.362 33.4248 115.147 33.9298 113.632 33.9298C112.172 33.9298 111.01 33.4445 110.143 32.474C109.276 31.5034 108.843 30.2783 108.843 28.8017C108.843 27.2565 109.289 25.9909 110.183 25.0068C111.076 24.0217 112.281 23.5292 113.796 23.5292C115.256 23.5292 116.431 24.0144 117.317 24.986C118.165 25.9285 118.588 27.1453 118.588 28.6365ZM116.295 28.7082C116.295 27.7885 116.099 26.9998 115.702 26.3421C115.238 25.5461 114.576 25.1492 113.717 25.1492C112.829 25.1492 112.154 25.5472 111.69 26.3421C111.293 27.0009 111.097 27.8021 111.097 28.7497C111.097 29.6694 111.293 30.4581 111.69 31.1148C112.168 31.9107 112.836 32.3077 113.697 32.3077C114.541 32.3077 115.204 31.9024 115.682 31.094C116.089 30.4238 116.295 29.6268 116.295 28.7082Z" fill="white"/>
<path fill-rule="evenodd" clip-rule="evenodd" d="M125.774 25.6811C125.555 25.6406 125.322 25.6198 125.077 25.6198C124.299 25.6198 123.698 25.9139 123.275 26.5031C122.907 27.0227 122.722 27.6794 122.722 28.4722V33.7042H120.513L120.533 26.873C120.533 25.7237 120.505 24.6773 120.45 23.7338H122.376L122.457 25.6417H122.518C122.751 24.986 123.119 24.4581 123.623 24.0622C124.116 23.7058 124.648 23.5281 125.221 23.5281C125.425 23.5281 125.61 23.5426 125.774 23.5686V25.6811Z" fill="white"/>
<path fill-rule="evenodd" clip-rule="evenodd" d="M135.66 28.2468C135.66 28.6437 135.634 28.9783 135.579 29.2516H128.948C128.974 30.2367 129.294 30.9901 129.91 31.5096C130.469 31.9741 131.191 32.2069 132.079 32.2069C133.061 32.2069 133.957 32.05 134.762 31.7351L135.109 33.273C134.167 33.6845 133.056 33.8892 131.773 33.8892C130.23 33.8892 129.019 33.4341 128.138 32.5248C127.259 31.6156 126.818 30.3946 126.818 28.863C126.818 27.3594 127.227 26.1072 128.048 25.1086C128.906 24.0425 130.066 23.5094 131.526 23.5094C132.96 23.5094 134.046 24.0425 134.783 25.1086C135.367 25.9555 135.66 27.0029 135.66 28.2468ZM133.552 27.6721C133.567 27.0154 133.423 26.448 133.123 25.969C132.74 25.3528 132.153 25.0452 131.361 25.0452C130.639 25.0452 130.051 25.3455 129.602 25.9482C129.234 26.4273 129.015 27.0019 128.948 27.6711H133.552V27.6721Z" fill="white"/>
<path d="M55.9062 17.0938C57.1523 17.0938 57.9883 16.4727 58.2461 15.3594H57.5352C57.332 16.0469 56.7383 16.4453 55.9102 16.4453C54.7969 16.4453 54.0898 15.5625 54.0898 14.1797C54.0898 12.8086 54.8047 11.918 55.9062 11.918C56.7109 11.918 57.3555 12.4023 57.5352 13.1406H58.2461C58.0664 12.0156 57.1328 11.2695 55.9062 11.2695C54.3633 11.2695 53.3672 12.4102 53.3672 14.1797C53.3672 15.9648 54.3516 17.0938 55.9062 17.0938ZM60.2578 15.0469L62.0039 17H62.8789L60.9336 14.8594L62.8242 12.9375H61.9844L60.2578 14.7344H60.2266V12.9375H59.5469V17H60.2266V15.0469H60.2578ZM65.0195 17.0703C65.5664 17.0703 66.082 16.7656 66.3242 16.3008H66.3398V17H66.9844V14.1914C66.9844 13.3828 66.3828 12.8672 65.4297 12.8672C64.4688 12.8672 63.8672 13.4062 63.8203 14.1094H64.4766C64.5625 13.7109 64.8906 13.4648 65.4141 13.4648C65.9766 13.4648 66.3047 13.7617 66.3047 14.2578V14.5977L65.1406 14.6641C64.2031 14.7188 63.668 15.1562 63.668 15.8516C63.668 16.582 64.2109 17.0703 65.0195 17.0703ZM65.1719 16.4922C64.6836 16.4922 64.3594 16.2383 64.3594 15.8516C64.3594 15.4688 64.6719 15.2266 65.2188 15.1914L66.3047 15.125V15.457C66.3047 16.043 65.8125 16.4922 65.1719 16.4922ZM71.5195 17V12.9375H70.8398V14.6484C70.6484 14.8398 70.293 14.9688 69.8398 14.9688C69.2773 14.9688 69 14.6289 69 14.0977V12.9375H68.3203V14.1055C68.3203 14.9727 68.832 15.5625 69.8164 15.5625C70.2461 15.5625 70.5508 15.4688 70.7812 15.3164H70.8398V17H71.5195ZM74.168 17.0703C74.7148 17.0703 75.2305 16.7656 75.4727 16.3008H75.4883V17H76.1328V14.1914C76.1328 13.3828 75.5312 12.8672 74.5781 12.8672C73.6172 12.8672 73.0156 13.4062 72.9688 14.1094H73.625C73.7109 13.7109 74.0391 13.4648 74.5625 13.4648C75.125 13.4648 75.4531 13.7617 75.4531 14.2578V14.5977L74.2891 14.6641C73.3516 14.7188 72.8164 15.1562 72.8164 15.8516C72.8164 16.582 73.3594 17.0703 74.168 17.0703ZM74.3203 16.4922C73.832 16.4922 73.5078 16.2383 73.5078 15.8516C73.5078 15.4688 73.8203 15.2266 74.3672 15.1914L75.4531 15.125V15.457C75.4531 16.043 74.9609 16.4922 74.3203 16.4922ZM80.4648 12.9375H77.168V13.4961H78.4766V17H79.1562V13.4961H80.4648V12.9375ZM81.5938 17H83.0352C83.9648 17 84.5625 16.4648 84.5625 15.6172C84.5625 14.7695 83.9648 14.2344 83.0352 14.2344H82.2734V12.9375H81.5938V17ZM83.0234 14.793C83.5469 14.793 83.8906 15.1172 83.8906 15.6172C83.8906 16.1133 83.5508 16.4414 83.0234 16.4414H82.2734V14.793H83.0234ZM89.6953 17C90.5586 17 91.0898 16.5508 91.0898 15.832C91.0898 15.3359 90.7539 14.9727 90.2422 14.9023V14.8711C90.6172 14.793 90.9102 14.4062 90.9102 13.9883C90.9102 13.3359 90.4453 12.9375 89.6836 12.9375H87.9453V17H89.6953ZM88.625 13.4883H89.582C90.0078 13.4883 90.2383 13.6914 90.2383 14.0586C90.2383 14.4531 89.9922 14.6445 89.4805 14.6445H88.625V13.4883ZM88.625 15.1914H89.5352C90.1289 15.1914 90.4141 15.3945 90.4141 15.8164C90.4141 16.2266 90.1484 16.4492 89.6562 16.4492H88.625V15.1914Z" fill="white"/>
</svg>

<svg width="158" height="50" fill="none" xmlns="http://www.w3.org/2000/svg"><path fill-rule="evenodd" clip-rule="evenodd" d="M152.379 50H5.535C2.484 50 0 47.34 0 44.084V5.907C0 2.65 2.484 0 5.535 0h146.844C155.429 0 158 2.65 158 5.907v38.177c0 3.256-2.571 5.916-5.621 5.916z" fill="#004177"/><path fill-rule="evenodd" clip-rule="evenodd" d="M39.55 23.558c-.03-3.35 2.736-4.979 2.862-5.054-1.567-2.29-3.995-2.602-4.848-2.627-2.04-.215-4.018 1.223-5.057 1.223-1.06 0-2.66-1.202-4.384-1.167-2.219.034-4.295 1.322-5.433 3.32-2.35 4.077-.598 10.068 1.654 13.363 1.126 1.614 2.441 3.416 4.164 3.352 1.685-.07 2.314-1.076 4.347-1.076 2.015 0 2.606 1.076 4.362 1.036 1.809-.03 2.947-1.621 4.034-3.25 1.301-1.85 1.824-3.67 1.844-3.764-.042-.015-3.511-1.342-3.546-5.356zm-3.319-9.848c.907-1.137 1.527-2.682 1.355-4.25-1.312.058-2.953.91-3.897 2.02-.836.98-1.582 2.583-1.39 4.092 1.474.11 2.987-.745 3.932-1.863zm28.392 19.994h-2.355l-1.29-4.062h-4.483l-1.229 4.062h-2.292l4.442-13.828h2.743l4.464 13.828zm-4.033-5.766l-1.167-3.61c-.123-.37-.354-1.238-.696-2.606h-.041a104.09 104.09 0 01-.655 2.605l-1.146 3.611h3.705zm15.456.658c0 1.696-.457 3.036-1.371 4.02-.82.876-1.837 1.314-3.05 1.314-1.311 0-2.253-.472-2.826-1.416h-.042v5.253h-2.21V27.015c0-1.066-.028-2.16-.082-3.282h1.944l.123 1.58h.042c.737-1.19 1.856-1.785 3.357-1.785 1.174 0 2.154.465 2.938 1.395.785.93 1.177 2.155 1.177 3.673zm-2.252.08c0-.97-.218-1.77-.655-2.4-.478-.656-1.12-.985-1.924-.985-.546 0-1.041.183-1.484.544a2.522 2.522 0 00-.87 1.427 2.908 2.908 0 00-.103.675V29.6c0 .725.222 1.337.666 1.837.444.5 1.02.75 1.73.75.832 0 1.48-.323 1.944-.965.464-.644.696-1.491.696-2.545zm13.696-.08c0 1.696-.457 3.036-1.372 4.02-.819.876-1.836 1.314-3.05 1.314-1.31 0-2.252-.472-2.824-1.416h-.042v5.253h-2.21V27.015c0-1.066-.028-2.16-.082-3.282h1.944l.123 1.58h.042c.736-1.19 1.855-1.785 3.357-1.785 1.173 0 2.153.465 2.939 1.395.782.93 1.175 2.155 1.175 3.673zm-2.252.08c0-.97-.219-1.77-.656-2.4-.478-.656-1.118-.985-1.923-.985-.547 0-1.041.183-1.485.544a2.521 2.521 0 00-.87 1.427 2.963 2.963 0 00-.102.675V29.6c0 .725.222 1.337.664 1.837.444.499 1.02.75 1.731.75.833 0 1.481-.323 1.945-.965.464-.644.696-1.491.696-2.545zm15.047 1.15c0 1.177-.407 2.134-1.225 2.872-.9.808-2.15 1.211-3.759 1.211-1.485 0-2.675-.287-3.576-.861l.512-1.847a6.05 6.05 0 003.196.883c.832 0 1.48-.189 1.946-.565.463-.376.695-.881.695-1.51 0-.562-.191-1.035-.574-1.418-.38-.384-1.016-.74-1.903-1.07-2.416-.902-3.623-2.225-3.623-3.965 0-1.137.423-2.069 1.27-2.794.844-.726 1.97-1.089 3.378-1.089 1.256 0 2.299.22 3.131.657l-.552 1.806c-.778-.424-1.657-.636-2.641-.636-.778 0-1.386.192-1.821.574a1.644 1.644 0 00-.553 1.252c0 .547.21 1 .634 1.354.368.329 1.037.684 2.007 1.068 1.188.479 2.06 1.039 2.62 1.681.559.64.838 1.441.838 2.397zm7.309-4.431h-2.436v4.842c0 1.231.429 1.846 1.29 1.846.395 0 .722-.034.982-.103l.061 1.683c-.436.163-1.009.245-1.719.245-.873 0-1.556-.267-2.048-.8-.491-.534-.737-1.43-.737-2.688v-5.027h-1.452v-1.662h1.452v-1.826l2.171-.657v2.483h2.436v1.664zm10.994 3.242c0 1.532-.437 2.79-1.31 3.775-.916 1.013-2.131 1.518-3.646 1.518-1.46 0-2.622-.486-3.489-1.456s-1.3-2.196-1.3-3.672c0-1.546.446-2.811 1.34-3.795.893-.985 2.098-1.478 3.613-1.478 1.46 0 2.635.485 3.521 1.457.848.942 1.271 2.16 1.271 3.65zm-2.293.071c0-.92-.196-1.708-.593-2.366-.464-.796-1.126-1.193-1.985-1.193-.888 0-1.563.398-2.027 1.193-.397.659-.593 1.46-.593 2.408 0 .92.196 1.708.593 2.365.478.796 1.146 1.193 2.007 1.193.844 0 1.507-.406 1.985-1.214.407-.67.613-1.467.613-2.386zm9.479-3.027a3.835 3.835 0 00-.697-.061c-.778 0-1.379.294-1.802.883-.368.52-.553 1.176-.553 1.97v5.231h-2.209l.02-6.831c0-1.15-.028-2.196-.083-3.14h1.926l.081 1.909h.061c.233-.656.601-1.184 1.105-1.58a2.672 2.672 0 011.598-.534c.204 0 .389.015.553.04v2.113zm9.886 2.566c0 .397-.026.731-.081 1.005h-6.631c.026.985.346 1.738.962 2.258.559.464 1.281.697 2.169.697.982 0 1.878-.157 2.683-.472l.347 1.538c-.942.411-2.053.616-3.336.616-1.543 0-2.754-.455-3.635-1.364-.879-.91-1.32-2.13-1.32-3.662 0-1.504.409-2.756 1.23-3.754.858-1.067 2.018-1.6 3.478-1.6 1.434 0 2.52.534 3.257 1.6.584.846.877 1.894.877 3.138zm-2.108-.575c.015-.657-.129-1.224-.429-1.703-.383-.616-.97-.924-1.762-.924-.722 0-1.31.3-1.759.903-.368.48-.587 1.054-.654 1.723h4.604v.001z" fill="#fff"/><path d="M55.906 17.094c1.246 0 2.082-.621 2.34-1.735h-.71c-.204.688-.798 1.086-1.626 1.086-1.113 0-1.82-.883-1.82-2.265 0-1.371.715-2.262 1.816-2.262.805 0 1.45.484 1.63 1.223h.71c-.18-1.125-1.113-1.871-2.34-1.871-1.543 0-2.539 1.14-2.539 2.91 0 1.785.985 2.914 2.54 2.914zm4.352-2.047L62.004 17h.875l-1.945-2.14 1.89-1.922h-.84l-1.726 1.796h-.031v-1.796h-.68V17h.68v-1.953h.03zm4.761 2.023c.547 0 1.063-.304 1.305-.77h.016v.7h.644v-2.809c0-.808-.601-1.324-1.554-1.324-.961 0-1.563.54-1.61 1.242h.657c.085-.398.414-.644.937-.644.563 0 .89.297.89.793v.34l-1.163.066c-.938.055-1.473.492-1.473 1.188 0 .73.543 1.218 1.351 1.218zm.153-.578c-.488 0-.813-.254-.813-.64 0-.383.313-.625.86-.66l1.086-.067v.332c0 .586-.493 1.035-1.133 1.035zm6.347.508v-4.063h-.68v1.711c-.19.192-.546.32-1 .32-.562 0-.839-.34-.839-.87v-1.16h-.68v1.167c0 .868.512 1.457 1.496 1.457.43 0 .735-.093.965-.246h.059V17h.68zm2.649.07c.547 0 1.063-.304 1.305-.77h.015v.7h.645v-2.809c0-.808-.602-1.324-1.555-1.324-.96 0-1.562.54-1.61 1.242h.657c.086-.398.414-.644.938-.644.562 0 .89.297.89.793v.34l-1.164.066c-.937.055-1.473.492-1.473 1.188 0 .73.543 1.218 1.352 1.218zm.152-.578c-.488 0-.812-.254-.812-.64 0-.383.312-.625.86-.66l1.085-.067v.332c0 .586-.492 1.035-1.133 1.035zm6.145-3.555h-3.297v.56h1.309V17h.68v-3.504h1.308v-.559zM81.594 17h1.441c.93 0 1.528-.535 1.528-1.383s-.598-1.383-1.528-1.383h-.762v-1.296h-.68V17zm1.43-2.207c.523 0 .867.324.867.824 0 .496-.34.824-.868.824h-.75v-1.648h.75zM89.694 17c.864 0 1.395-.45 1.395-1.168 0-.496-.336-.86-.848-.93v-.03c.375-.079.668-.466.668-.884 0-.652-.465-1.05-1.226-1.05h-1.739V17h1.75zm-1.07-3.512h.957c.426 0 .656.203.656.57 0 .395-.246.587-.757.587h-.856v-1.157zm0 1.703h.91c.594 0 .88.204.88.625 0 .41-.267.633-.759.633h-1.031v-1.258z" fill="#fff"/></svg>
